svg/u1fab8.svg

<svg viewBox="0 0 128 128" xmlns="http://www.w3.org/2000/svg" xmlns:xlink="http://www.w3.org/1999/xlink">
  <g id="Layer_3">
    <path d="M6.47,39.53c2.94-1.73,4.49-0.67,5.27,0.97s0.6,9.39,1.38,11.65c0.78,2.25,2,5.36,3.15,7.29 c1.39,2.34,3.76,5.76,6.79,4.72c1.87-0.64,2.98-3.09,3.07-4.47c0.09-1.39-2.37-6.18-1.74-11.77c0.5-4.39,2.07-5.72,3.31-6.63 c1.48-1.09,3.61-1.25,4.99-1.1c1.45,0.16,2.18,0.62,2.18,2.79s-0.89,5.97-0.71,9.08s1.59,5.76,1.24,8.53 c-0.35,2.77-1.74,7.29-1.74,7.29s2.07,3.18,3.98,4.31c2.73,1.62,4.47,1.57,4.47,1.57s2.03-9.29,3.26-13.75 C46.76,55,48.91,50.56,48.99,49c0.09-1.56-2.46-12.82-3.65-15.41c-1.91-4.14-5.81-10.31-6.79-12.93c-1.66-4.39-0.25-7.71,3.62-8.94 c2.53-0.81,4.34,1.52,6.16,4.64c1.27,2.18,3.09,5.67,4.39,8.62s4.33,11.94,7.71,11.68c3.38-0.26,5.8-4.19,5.88-6.88 c0.09-2.68-2.25-12.36-1.91-17.9c0.24-3.8,3.22-4.71,4.61-5.22c0.95-0.35,2.93,0.91,4.09,2.57c1.16,1.66,1.78,3.36,2.24,8.62 C75.79,23.06,75,30,77.17,30.52c1.7,0.41,1.56-2.36,3.73-1.41c2.35,1.03,2.57,4.78,1.47,6.39c-2.69,3.94-6.41,4.26-7.19,5.21 c-0.78,0.95-3.93,4.91-5.05,6.38s-2.45,2.96-5.22,5.47c-2.77,2.51-4.3,4.36-5.3,6.3c-1.16,2.24-2.7,7.56-3.48,10.85 c-0.78,3.29-1.04,5.12,0,7.37c1.04,2.25,2.57,3.56,2.57,3.56s2.49-5.55,7.04-4.56c2.41,0.53,3.45,2.08,4.14,3.81 c0.69,1.73,0.12,5.07-0.75,6.63c-0.87,1.56-1.76,3.36-0.17,4.56c1.33,0.99,3.81,0.33,6.21-2.32c3.31-3.66,5.11-6.2,5.88-9.45 c0.75-3.15,0.7-6.64,0.17-12.1c-0.66-6.71-2.81-11.08-2.02-15.48c0.54-2.99,3.01-4.16,3.01-4.16s1.27-0.78,4.47,0 c3.2,0.78,3.22,4.81,3.56,8.62c0.35,3.81-0.58,10.44,2.4,10.52c2.25,0.06,7.14-0.42,10.77-4.14s6.87-12.44,7.04-16.07 c0.17-3.64-0.73-8.61,0.75-10.69s3.12-3.02,5.63-2.24s2.53,4.18,2.82,5.8c0.52,2.94-0.17,11.93-0.17,11.93s1.96-1.75,3.27-1.51 c1.87,0.35,2.62,1.5,2.62,3.33c0,5.14-5.26,11.89-12.18,18.64c-6.96,6.79-14.57,8.37-15.73,9.94c-1.39,1.88-2.32,5.44-6.64,11.19 c-3.6,4.78-8.23,9.65-10.15,11.33c-0.66,0.58,3.77,4.5,3.77,4.5s0.7-2.89,3.73-3.23c1.69-0.19,2.99,0.23,3.91,1.16 c0.74,0.74,1.26,1.9,1.33,2.71c0.17,1.82-0.5,4.31-3.09,6.9s-6.09,5.21-24.62,4.87s-24.54,0.1-25.42-5.03 c-0.91-5.3,3.33-7.01,3.89-7.29c1.51-0.77,2.82-1.24,3.07-1.74c0.41-0.83-7.54-2.82-12.76-5.88c-4.38-2.57-3.88-4.33-3.65-5.55 c0.41-2.15,3.19-4.28,5.7-3.76c2.51,0.52,6.06,2.86,6.06,2.86s5.53,4.34,6.22,3.47c1-1.25,0.94-4.6-5.22-8.04 c-4.34-2.42-9.95-4.06-20.38-10.61C13.45,73.44,5.66,63.66,3.84,54.71C2.11,46.24,3.41,41.33,6.47,39.53z" fill="#DA4D32"/>
    <path d="M9.36,38.64c0,0,3.2,0.17,3.98,1.82s-0.17,8.83,0.61,11.08c0.78,2.25,2.23,6.03,3.38,7.96 c1.39,2.34,5.89,6.49,8.92,5.45c1.87-0.64,2.6-1.99,2.68-3.38c0.09-1.39-1.64-10.39-1.47-13.42c0.17-3.03,0.67-5.13,1.99-6.41 c0.86-0.83,1.82-1.64,3.2-1.56c1.39,0.09,2.6,0.69,2.6,2.86c0,2.16-0.43,5.54-0.26,8.66c0.17,3.12,1.42,6.04,1.39,8.83 c-0.05,4.19-1.21,6.67-1.21,6.67s1.04,2.42,2.94,3.55c2.73,1.62,4.24,2.16,4.24,2.16s1.8-8.44,3.03-12.9 c1.39-5.02,5.2-14.71,5.19-16.28c-0.01-3.45-1.3-7.96-2.25-10.65s-5.36-10.17-6.49-12.73c-1.56-3.51-2.16-7.79,0.35-8.66 c2.51-0.87,5.19,0.52,7.01,3.64c1.27,2.18,3.23,5.41,4.42,8.4c1.72,4.34,3.92,11.35,7.3,11.09c3.38-0.26,4.05-3.29,4.13-5.98 s-1.99-11.61-1.65-17.15c0.24-3.8,3.16-4.96,4.37-5.17c1-0.17,1.98,0.09,1.98,0.09s1.61,3.99,2.31,10.36 c0.57,5.21-0.43,12.21,1.73,12.73c1.7,0.41,4.16-1.99,6.32-1.04c2.35,1.03,2.51,2.08,1.9,2.77c-0.61,0.69-7.79,6.32-8.57,7.27 c-0.78,0.95-2.92,3.81-4.04,5.28s-2.84,3.16-5.61,5.67c-2.77,2.51-4.21,3.87-5.42,5.68c-1.21,1.82-3.54,9.25-4.32,12.54 c-0.78,3.29-1.3,7.53-0.26,9.78c1.04,2.25,4.16,4.67,4.16,4.67s1.99-5.37,4.33-6.15c2.34-0.78,4.76-0.26,5.45,1.47 c0.69,1.73,0.17,4.67-0.69,6.23c-0.87,1.56-3.29,6.15-1.56,8.4c1.73,2.25,3.64,3.64,7.88,1.73c4.24-1.9,7.7-7.62,9.09-10.65 s2.08-5.71,2.6-11.17c0.52-5.45-2.22-16.81-2.6-19.83c-0.38-2.98-0.21-4.81-0.21-4.81s1.57-1.06,4.37-0.51 c3.23,0.64,4.32,4.97,4.67,8.78c0.35,3.81-0.69,10.3,1.56,10.3c2.25,0,6.58-0.69,10.22-4.42s6.41-11.69,6.58-15.32 c0.17-3.64-0.43-9.44,1.04-11.51s3.64-3.03,6.15-2.25c2.51,0.78,3.52,3.92,3.81,5.54c0.52,2.94-0.26,12.21-0.26,12.21 s1.13-0.87,2.42-0.61c1.3,0.26,1.13,2.51,0.52,4.24c-0.61,1.73-4.85,8.48-12.38,14.54c-7.53,6.06-13.15,7.11-14.62,8.93 s-5.54,10.17-8.15,13.49c-3.32,4.22-8.77,9.29-9.44,9.96c-0.78,0.78,1.3,2.46,2.42,3.81c1.3,1.56,2.77,3.12,2.77,3.12 s1.04-2.16,4.07-2.51s4.16,1.3,4.16,1.3s-1.27,4.98-3.72,8.05c-2.29,2.87-4.16,6.75-22.68,6.41s-22.07-0.95-23.46-5.97 c-1.13-4.07,1.99-6.22,2.51-6.58c1.13-0.78,3.98-1.82,3.81-3.38c-0.23-2.03-6.84-2.77-11.95-6.15s-4.44-5.72-4.44-5.72 s1.79-1.92,4.34-1.67c2.72,0.27,5.15,2.4,6.42,3.02c2.25,1.08,10.3,3.6,10.99,2.73c1-1.25,0.77-3.57-5.45-8.57 c-4.73-3.81-13.16-6.49-23.81-13.16C14.2,69.13,9.27,59.83,7.72,53.53C5.64,45.13,9.36,38.64,9.36,38.64z" fill="#EE6F5D"/>
    <path d="M30.41,56.38c0,0,0.82-2.45,2.38-1.38c1.57,1.07,0.31,5.71-1.88,6.08c-2.2,0.38-4.96-4.64-3.7-5.9 C28.57,53.83,30.41,56.38,30.41,56.38z" fill="#FBEBCC"/>
    <path d="M18.43,65.1c0,0-0.06-3.51-2.45-3.26s-1.44,3.64-1.44,3.64s-2.57,0.63-1.94,2.45 s3.45,1.25,3.45,1.25s0.5,2.95,2.51,2.45c2.01-0.5,1-2.95,1-2.95s3.2,0.31,2.7-2.13C21.75,64.09,18.43,65.1,18.43,65.1z" fill="#FBEBCC"/>
    <path d="M34.49,73.44c0,0-1.13-3.14-2.95-2.2c-1.82,0.94-0.25,3.7-0.25,3.7s-3.45,1.07-2.76,2.82 c0.69,1.76,3.76,1.07,3.76,1.07s-0.94,3.76,1.38,4.2c2.32,0.44,2.45-3.83,2.45-3.83s3.51,1.88,4.2-0.38 c0.69-2.26-2.63-2.82-2.63-2.82s2.57-2.32,0.63-3.7C36.37,70.93,34.49,73.44,34.49,73.44z" fill="#FBEBCC"/>
    <path d="M48.35,65.97c-1.88,0.63-1.76,3.39-1.32,4.64c0.44,1.25,1.69,3.32,3.2,2.89 c1.51-0.44,1.76-3.07,1.44-4.7C51.36,67.17,49.97,65.43,48.35,65.97z" fill="#FBEBCC"/>
    <path d="M56.13,46.4c0,0,0.82-3.26,2.63-3.07c1.82,0.19,1.13,3.89,1.13,3.89s3.39,0.19,3.14,2.13 c-0.25,1.94-4.27,2.07-4.27,2.07s-0.56,5.21-2.89,4.89c-2.1-0.28-0.75-5.27-0.75-5.27s-4.16-0.47-4.08-2.57 c0.06-1.63,2.38-1.19,2.38-1.19s-1.82-2.26-0.06-3.01C55.12,43.52,56.13,46.4,56.13,46.4z" fill="#FBEBCC"/>
    <path d="M67.04,14.42c0,0-1.16-1.52-2.32-0.94c-1.85,0.93,1.26,6.17,2.7,6.21c2.13,0.06,3.33-5.96,2.16-6.52 C67.76,12.28,67.04,14.42,67.04,14.42z" fill="#FBEBCC"/>
    <path d="M48.13,26.46c0,0,0.44-2.86,2.11-2.55c1.68,0.31,1.18,3.85,1.18,3.85s2.86,0.25,2.86,1.86 s-1.8,2.24-1.8,2.24s1.12,3.54-0.44,4.17s-2.55-2.67-2.55-2.67s-1.68,3.11-3.11,1.55s1.37-4.66,1.37-4.66s-3.93-1.61-2.8-3.67 C45.96,24.78,48.13,26.46,48.13,26.46z" fill="#FBEBCC"/>
    <path d="M75.3,30.69c0,0,0.44-4.04,2.05-3.92c1.62,0.12,1.37,3.05,1.37,3.05s2-0.75,2.8,0.75 c0.99,1.86-2.11,3.54-2.11,3.54s1.8,2.92-0.19,4.1c-2.04,1.21-2.8-2.3-2.92-2.11s-1.68,2.8-3.11,1.43 c-1.43-1.37,0.62-3.73,0.62-3.73s-3.33-0.48-2.49-2.55C72.01,29.57,75.3,30.69,75.3,30.69z" fill="#FBEBCC"/>
    <path d="M58.02,79.68c0,0,0.25-4.85,2.36-4.54c2.65,0.39,1.18,5.41,1.18,5.41s3.98-0.99,4.41,1.18 S62,84.77,62,84.77s0.5,4.1-1.49,4.66c-1.99,0.56-2.49-3.61-2.49-3.61s-3.23,3.67-4.66,1.55c-1.43-2.11,3.23-4.54,3.23-4.54 s-3.99-2.81-2.8-4.29C55.34,76.63,58.02,79.68,58.02,79.68z" fill="#FBEBCC"/>
    <path d="M57.96,98.01c0,0,0.2-4.12,2.11-3.92c2.92,0.31,2.3,6.59,1.43,7.46c-0.87,0.87-7.27,0.81-6.9-1.49 C54.97,97.77,57.96,98.01,57.96,98.01z" fill="#FBEBCC"/>
    <path d="M82.57,86.08c0,0-0.37-3.73,1.12-4.23c1.49-0.5,1.74,2.74,1.74,2.74s2.11-2.18,3.11-0.93 c0.99,1.24-0.68,2.67-0.68,2.67s0.99,0.17,0.99,1.31c0,1.55-2.8,1.62-2.8,1.62s0.5,2.36-1.31,2.49s-1.55-2.18-1.55-2.18 s-3.36,0.99-3.54-1.12C79.46,86.33,82.57,86.08,82.57,86.08z" fill="#FBEBCC"/>
    <path d="M85.62,68.67c0,0-0.37-3.11,1.43-3.11c1.8,0,1.55,2.86,1.55,2.86s2.36-1.8,3.05-0.19 c0.68,1.62-1.49,2.61-1.49,2.61s2.11,2.11,0.93,3.17c-1.18,1.06-2.74-0.99-2.74-0.99s-0.21,2.81-1.68,2.67 c-1.99-0.19-1.62-3.73-1.62-3.73s-2.8,0.68-3.11-1.31C81.64,68.67,85.62,68.67,85.62,68.67z" fill="#FBEBCC"/>
    <path d="M83.69,55c1.21,1.21,5.84-0.87,5.66-2.74c-0.19-1.92-1.93-1.18-1.93-1.18s1.11-2.63-0.81-3.05 C84.31,47.54,82.95,54.25,83.69,55z" fill="#FBEBCC"/>
    <path d="M100.54,69.73c-1.25-0.9-3.48-0.25-4.54,1.24c-1.32,1.87-1.43,4.04-0.19,4.97 c1.24,0.93,3.47-0.25,4.48-1.68C101.47,72.59,101.66,70.54,100.54,69.73z" fill="#FBEBCC"/>
    <path d="M112.1,57.11c0,0,1.06-4.56,3.05-4.29c2.3,0.31,0.56,4.54,0.56,4.54s3.15-0.89,3.05,1.31 c-0.12,2.55-4.23,1.99-4.23,1.99s0.5,3.98-1.99,4.04c-1.62,0.04-1.49-2.18-1.49-2.18s-1.6,2.6-2.98,1.12 c-1.74-1.86,1.62-4.48,1.62-4.48s-3.16-1.02-2.3-2.74C108.43,54.31,112.1,57.11,112.1,57.11z" fill="#FBEBCC"/>
  </g>
</svg>

<svg viewBox="0 0 128 128" xmlns="http://www.w3.org/2000/svg">
  <defs/>
  <path d="M6.47,39.53 C9.41,37.8 10.96,38.86 11.74,40.5 C12.52,42.14 12.34,49.89 13.12,52.15 C13.9,54.4 15.12,57.51 16.27,59.44 C17.66,61.78 20.03,65.2 23.06,64.16 C24.93,63.52 26.04,61.07 26.13,59.69 C26.22,58.3 23.76,53.51 24.39,47.92 C24.89,43.53 26.46,42.2 27.7,41.29 C29.18,40.2 31.31,40.04 32.69,40.19 C34.14,40.35 34.87,40.81 34.87,42.98 C34.87,45.15 33.98,48.95 34.16,52.06 C34.34,55.17 35.75,57.82 35.4,60.59 C35.05,63.36 33.66,67.88 33.66,67.88 C33.66,67.88 35.73,71.06 37.64,72.19 C40.37,73.81 42.11,73.76 42.11,73.76 C42.11,73.76 44.14,64.47 45.37,60.01 C46.76,55 48.91,50.56 48.99,49 C49.08,47.44 46.53,36.18 45.34,33.59 C43.43,29.45 39.53,23.28 38.55,20.66 C36.89,16.27 38.3,12.95 42.17,11.72 C44.7,10.91 46.51,13.24 48.33,16.36 C49.6,18.54 51.42,22.03 52.72,24.98 C54.02,27.93 57.05,36.92 60.43,36.66 C63.81,36.4 66.23,32.47 66.31,29.78 C66.4,27.1 64.06,17.42 64.4,11.88 C64.64,8.08 67.62,7.17 69.01,6.66 C69.96,6.31 71.94,7.57 73.1,9.23 C74.26,10.89 74.88,12.59 75.34,17.85 C75.79,23.06 75,30 77.17,30.52 C78.87,30.93 78.73,28.16 80.9,29.11 C83.25,30.14 83.47,33.89 82.37,35.5 C79.68,39.44 75.96,39.76 75.18,40.71 C74.4,41.66 71.25,45.62 70.13,47.09 C69.01,48.56 67.68,50.05 64.91,52.56 C62.14,55.07 60.61,56.92 59.61,58.86 C58.45,61.1 56.91,66.42 56.13,69.71 C55.35,73 55.09,74.83 56.13,77.08 C57.17,79.33 58.7,80.64 58.7,80.64 C58.7,80.64 61.19,75.09 65.74,76.08 C68.15,76.61 69.19,78.16 69.88,79.89 C70.57,81.62 70,84.96 69.13,86.52 C68.26,88.08 67.37,89.88 68.96,91.08 C70.29,92.07 72.77,91.41 75.17,88.76 C78.48,85.1 80.28,82.56 81.05,79.31 C81.8,76.16 81.75,72.67 81.22,67.21 C80.56,60.5 78.41,56.13 79.2,51.73 C79.74,48.74 82.21,47.57 82.21,47.57 C82.21,47.57 83.48,46.79 86.68,47.57 C89.88,48.35 89.9,52.38 90.24,56.19 C90.59,60 89.66,66.63 92.64,66.71 C94.89,66.77 99.78,66.29 103.41,62.57 C107.04,58.85 110.28,50.13 110.45,46.5 C110.62,42.86 109.72,37.89 111.2,35.81 C112.68,33.73 114.32,32.79 116.83,33.57 C119.34,34.35 119.36,37.75 119.65,39.37 C120.17,42.31 119.48,51.3 119.48,51.3 C119.48,51.3 121.44,49.55 122.75,49.79 C124.62,50.14 125.37,51.29 125.37,53.12 C125.37,58.26 120.11,65.01 113.19,71.76 C106.23,78.55 98.62,80.13 97.46,81.7 C96.07,83.58 95.14,87.14 90.82,92.89 C87.22,97.67 82.59,102.54 80.67,104.22 C80.01,104.8 84.44,108.72 84.44,108.72 C84.44,108.72 85.14,105.83 88.17,105.49 C89.86,105.3 91.16,105.72 92.08,106.65 C92.82,107.39 93.34,108.55 93.41,109.36 C93.58,111.18 92.91,113.67 90.32,116.26 C87.73,118.85 84.23,121.47 65.7,121.13 C47.17,120.79 41.16,121.23 40.28,116.1 C39.37,110.8 43.61,109.09 44.17,108.81 C45.68,108.04 46.99,107.57 47.24,107.07 C47.65,106.24 39.7,104.25 34.48,101.19 C30.1,98.62 30.6,96.86 30.83,95.64 C31.24,93.49 34.02,91.36 36.53,91.88 C39.04,92.4 42.59,94.74 42.59,94.74 C42.59,94.74 48.12,99.08 48.81,98.21 C49.81,96.96 49.75,93.61 43.59,90.17 C39.25,87.75 33.64,86.11 23.21,79.56 C13.45,73.44 5.66,63.66 3.84,54.71 C2.11,46.24 3.41,41.33 6.47,39.53 Z" fill="#DA4D32"/>
  <path d="M9.36,38.64 C9.36,38.64 12.56,38.81 13.34,40.46 C14.12,42.11 13.17,49.29 13.95,51.54 C14.73,53.79 16.18,57.57 17.33,59.5 C18.72,61.84 23.22,65.99 26.25,64.95 C28.12,64.31 28.85,62.96 28.93,61.57 C29.02,60.18 27.29,51.18 27.46,48.15 C27.63,45.12 28.13,43.02 29.45,41.74 C30.31,40.91 31.27,40.1 32.65,40.18 C34.04,40.27 35.25,40.87 35.25,43.04 C35.25,45.2 34.82,48.58 34.99,51.7 C35.16,54.82 36.41,57.74 36.38,60.53 C36.33,64.72 35.17,67.2 35.17,67.2 C35.17,67.2 36.21,69.62 38.11,70.75 C40.84,72.37 42.35,72.91 42.35,72.91 C42.35,72.91 44.15,64.47 45.38,60.01 C46.77,54.99 50.58,45.3 50.57,43.73 C50.56,40.28 49.27,35.77 48.32,33.08 C47.37,30.39 42.96,22.91 41.83,20.35 C40.27,16.84 39.67,12.56 42.18,11.69 C44.69,10.82 47.37,12.21 49.19,15.33 C50.46,17.51 52.42,20.74 53.61,23.73 C55.33,28.07 57.53,35.08 60.91,34.82 C64.29,34.56 64.96,31.53 65.04,28.84 C65.12,26.15 63.05,17.23 63.39,11.69 C63.63,7.89 66.55,6.73 67.76,6.52 C68.76,6.35 69.74,6.61 69.74,6.61 C69.74,6.61 71.35,10.6 72.05,16.97 C72.62,22.18 71.62,29.18 73.78,29.7 C75.48,30.11 77.94,27.71 80.1,28.66 C82.45,29.69 82.61,30.74 82,31.43 C81.39,32.12 74.21,37.75 73.43,38.7 C72.65,39.65 70.51,42.51 69.39,43.98 C68.27,45.45 66.55,47.14 63.78,49.65 C61.01,52.16 59.57,53.52 58.36,55.33 C57.15,57.15 54.82,64.58 54.04,67.87 C53.26,71.16 52.74,75.4 53.78,77.65 C54.82,79.9 57.94,82.32 57.94,82.32 C57.94,82.32 59.93,76.95 62.27,76.17 C64.61,75.39 67.03,75.91 67.72,77.64 C68.41,79.37 67.89,82.31 67.03,83.87 C66.16,85.43 63.74,90.02 65.47,92.27 C67.2,94.52 69.11,95.91 73.35,94 C77.59,92.1 81.05,86.38 82.44,83.35 C83.83,80.32 84.52,77.64 85.04,72.18 C85.56,66.73 82.82,55.37 82.44,52.35 C82.06,49.37 82.23,47.54 82.23,47.54 C82.23,47.54 83.8,46.48 86.6,47.03 C89.83,47.67 90.92,52 91.27,55.81 C91.62,59.62 90.58,66.11 92.83,66.11 C95.08,66.11 99.41,65.42 103.05,61.69 C106.69,57.96 109.46,50 109.63,46.37 C109.8,42.73 109.2,36.93 110.67,34.86 C112.14,32.79 114.31,31.83 116.82,32.61 C119.33,33.39 120.34,36.53 120.63,38.15 C121.15,41.09 120.37,50.36 120.37,50.36 C120.37,50.36 121.5,49.49 122.79,49.75 C124.09,50.01 123.92,52.26 123.31,53.99 C122.7,55.72 118.46,62.47 110.93,68.53 C103.4,74.59 97.78,75.64 96.31,77.46 C94.84,79.28 90.77,87.63 88.16,90.95 C84.84,95.17 79.39,100.24 78.72,100.91 C77.94,101.69 80.02,103.37 81.14,104.72 C82.44,106.28 83.91,107.84 83.91,107.84 C83.91,107.84 84.95,105.68 87.98,105.33 C91.01,104.98 92.14,106.63 92.14,106.63 C92.14,106.63 90.87,111.61 88.42,114.68 C86.13,117.55 84.26,121.43 65.74,121.09 C47.22,120.75 43.67,120.14 42.28,115.12 C41.15,111.05 44.27,108.9 44.79,108.54 C45.92,107.76 48.77,106.72 48.6,105.16 C48.37,103.13 41.76,102.39 36.65,99.01 C31.54,95.63 32.21,93.29 32.21,93.29 C32.21,93.29 34,91.37 36.55,91.62 C39.27,91.89 41.7,94.02 42.97,94.64 C45.22,95.72 53.27,98.24 53.96,97.37 C54.96,96.12 54.73,93.8 48.51,88.8 C43.78,84.99 35.35,82.31 24.7,75.64 C14.2,69.13 9.27,59.83 7.72,53.53 C5.64,45.13 9.36,38.64 9.36,38.64 Z" fill="#EE6F5D"/>
  <path d="M30.41,56.38 C30.41,56.38 31.23,53.93 32.79,55 C34.36,56.07 33.1,60.71 30.91,61.08 C28.71,61.46 25.95,56.44 27.21,55.18 C28.57,53.83 30.41,56.38 30.41,56.38 Z" fill="#FBEBCC"/>
  <path d="M18.43,65.1 C18.43,65.1 18.37,61.59 15.98,61.84 C13.59,62.09 14.54,65.48 14.54,65.48 C14.54,65.48 11.97,66.11 12.6,67.93 C13.23,69.75 16.05,69.18 16.05,69.18 C16.05,69.18 16.55,72.13 18.56,71.63 C20.57,71.13 19.56,68.68 19.56,68.68 C19.56,68.68 22.76,68.99 22.26,66.55 C21.75,64.09 18.43,65.1 18.43,65.1 Z" fill="#FBEBCC"/>
  <path d="M34.49,73.44 C34.49,73.44 33.36,70.3 31.54,71.24 C29.72,72.18 31.29,74.94 31.29,74.94 C31.29,74.94 27.84,76.01 28.53,77.76 C29.22,79.52 32.29,78.83 32.29,78.83 C32.29,78.83 31.35,82.59 33.67,83.03 C35.99,83.47 36.12,79.2 36.12,79.2 C36.12,79.2 39.63,81.08 40.32,78.82 C41.01,76.56 37.69,76 37.69,76 C37.69,76 40.26,73.68 38.32,72.3 C36.37,70.93 34.49,73.44 34.49,73.44 Z" fill="#FBEBCC"/>
  <path d="M48.35,65.97 C46.47,66.6 46.59,69.36 47.03,70.61 C47.47,71.86 48.72,73.93 50.23,73.5 C51.74,73.06 51.99,70.43 51.67,68.8 C51.36,67.17 49.97,65.43 48.35,65.97 Z" fill="#FBEBCC"/>
  <path d="M56.13,46.4 C56.13,46.4 56.95,43.14 58.76,43.33 C60.58,43.52 59.89,47.22 59.89,47.22 C59.89,47.22 63.28,47.41 63.03,49.35 C62.78,51.29 58.76,51.42 58.76,51.42 C58.76,51.42 58.2,56.63 55.87,56.31 C53.77,56.03 55.12,51.04 55.12,51.04 C55.12,51.04 50.96,50.57 51.04,48.47 C51.1,46.84 53.42,47.28 53.42,47.28 C53.42,47.28 51.6,45.02 53.36,44.27 C55.12,43.52 56.13,46.4 56.13,46.4 Z" fill="#FBEBCC"/>
  <path d="M67.04,14.42 C67.04,14.42 65.88,12.9 64.72,13.48 C62.87,14.41 65.98,19.65 67.42,19.69 C69.55,19.75 70.75,13.73 69.58,13.17 C67.76,12.28 67.04,14.42 67.04,14.42 Z" fill="#FBEBCC"/>
  <path d="M48.13,26.46 C48.13,26.46 48.57,23.6 50.24,23.91 C51.92,24.22 51.42,27.76 51.42,27.76 C51.42,27.76 54.28,28.01 54.28,29.62 C54.28,31.23 52.48,31.86 52.48,31.86 C52.48,31.86 53.6,35.4 52.04,36.03 C50.48,36.66 49.49,33.36 49.49,33.36 C49.49,33.36 47.81,36.47 46.38,34.91 C44.95,33.35 47.75,30.25 47.75,30.25 C47.75,30.25 43.82,28.64 44.95,26.58 C45.96,24.78 48.13,26.46 48.13,26.46 Z" fill="#FBEBCC"/>
  <path d="M75.3,30.69 C75.3,30.69 75.74,26.65 77.35,26.77 C78.97,26.89 78.72,29.82 78.72,29.82 C78.72,29.82 80.72,29.07 81.52,30.57 C82.51,32.43 79.41,34.11 79.41,34.11 C79.41,34.11 81.21,37.03 79.22,38.21 C77.18,39.42 76.42,35.91 76.3,36.1 C76.18,36.29 74.62,38.9 73.19,37.53 C71.76,36.16 73.81,33.8 73.81,33.8 C73.81,33.8 70.48,33.32 71.32,31.25 C72.01,29.57 75.3,30.69 75.3,30.69 Z" fill="#FBEBCC"/>
  <path d="M58.02,79.68 C58.02,79.68 58.27,74.83 60.38,75.14 C63.03,75.53 61.56,80.55 61.56,80.55 C61.56,80.55 65.54,79.56 65.97,81.73 C66.4,83.9 62,84.77 62,84.77 C62,84.77 62.5,88.87 60.51,89.43 C58.52,89.99 58.02,85.82 58.02,85.82 C58.02,85.82 54.79,89.49 53.36,87.37 C51.93,85.26 56.59,82.83 56.59,82.83 C56.59,82.83 52.6,80.02 53.79,78.54 C55.34,76.63 58.02,79.68 58.02,79.68 Z" fill="#FBEBCC"/>
  <path d="M57.96,98.01 C57.96,98.01 58.16,93.89 60.07,94.09 C62.99,94.4 62.37,100.68 61.5,101.55 C60.63,102.42 54.23,102.36 54.6,100.06 C54.97,97.77 57.96,98.01 57.96,98.01 Z" fill="#FBEBCC"/>
  <path d="M82.57,86.08 C82.57,86.08 82.2,82.35 83.69,81.85 C85.18,81.35 85.43,84.59 85.43,84.59 C85.43,84.59 87.54,82.41 88.54,83.66 C89.53,84.9 87.86,86.33 87.86,86.33 C87.86,86.33 88.85,86.5 88.85,87.64 C88.85,89.19 86.05,89.26 86.05,89.26 C86.05,89.26 86.55,91.62 84.74,91.75 C82.93,91.88 83.19,89.57 83.19,89.57 C83.19,89.57 79.83,90.56 79.65,88.45 C79.46,86.33 82.57,86.08 82.57,86.08 Z" fill="#FBEBCC"/>
  <path d="M85.62,68.67 C85.62,68.67 85.25,65.56 87.05,65.56 C88.85,65.56 88.6,68.42 88.6,68.42 C88.6,68.42 90.96,66.62 91.65,68.23 C92.33,69.85 90.16,70.84 90.16,70.84 C90.16,70.84 92.27,72.95 91.09,74.01 C89.91,75.07 88.35,73.02 88.35,73.02 C88.35,73.02 88.14,75.83 86.67,75.69 C84.68,75.5 85.05,71.96 85.05,71.96 C85.05,71.96 82.25,72.64 81.94,70.65 C81.64,68.67 85.62,68.67 85.62,68.67 Z" fill="#FBEBCC"/>
  <path d="M83.69,55 C84.9,56.21 89.53,54.13 89.35,52.26 C89.16,50.34 87.42,51.08 87.42,51.08 C87.42,51.08 88.53,48.45 86.61,48.03 C84.31,47.54 82.95,54.25 83.69,55 Z" fill="#FBEBCC"/>
  <path d="M100.54,69.73 C99.29,68.83 97.06,69.48 96,70.97 C94.68,72.84 94.57,75.01 95.81,75.94 C97.05,76.87 99.28,75.69 100.29,74.26 C101.47,72.59 101.66,70.54 100.54,69.73 Z" fill="#FBEBCC"/>
  <path d="M112.1,57.11 C112.1,57.11 113.16,52.55 115.15,52.82 C117.45,53.13 115.71,57.36 115.71,57.36 C115.71,57.36 118.86,56.47 118.76,58.67 C118.64,61.22 114.53,60.66 114.53,60.66 C114.53,60.66 115.03,64.64 112.54,64.7 C110.92,64.74 111.05,62.52 111.05,62.52 C111.05,62.52 109.45,65.12 108.07,63.64 C106.33,61.78 109.69,59.16 109.69,59.16 C109.69,59.16 106.53,58.14 107.39,56.42 C108.43,54.31 112.1,57.11 112.1,57.11 Z" fill="#FBEBCC"/>
</svg>
